components/Common/Svg/svgs/secure.svg

<svg width="40" height="40" viewBox="0 0 40 40" fill="none" xmlns="http://www.w3.org/2000/svg">
<path d="M25.9008 30.501C25.5008 30.901 24.9008 30.901 24.5008 30.501L21.6008 27.801C21.2008 27.401 21.2008 26.801 21.6008 26.401C22.0008 26.001 22.6008 26.001 23.0008 26.401L25.2008 28.501L30.4008 23.601C30.8008 23.201 31.4008 23.201 31.8008 23.601C32.2008 24.001 32.2008 24.601 31.8008 25.001L25.9008 30.501Z" fill="#161616"/>
<path fill-rule="evenodd" clip-rule="evenodd" d="M34.7 17.8009C35.2 17.8009 35.7 18.0009 36 18.3009C36.3 18.7009 36.5 19.1009 36.5 19.4009V25.2009C36.5 29.7009 34.5 32.7009 32.4 34.6009C30.398 36.4123 28.2142 37.2239 27.3216 37.5556C27.2779 37.5719 27.2373 37.5869 27.2 37.6009C26.9 37.7009 26.5 37.7009 26.1 37.6009C25.3 37.4009 23 36.5009 20.9 34.6009C19.3 33.2009 17.8 31.1009 17.2 28.3009C16.7 28.4009 16.1 28.4009 15.5 28.4009C12.4 28.4009 9.5 27.8009 7.3 26.6009C5.1 25.5009 3.5 23.8009 3.5 21.6009V9.80095C3.5 7.60095 5.1 5.90095 7.3 4.80095C9.4 3.60095 12.4 3.00095 15.5 3.00095C18.6 3.00095 21.5 3.60095 23.7 4.80095C25.9 5.90095 27.5 7.60095 27.5 9.80095V15.7009C27.5 16.4009 27.3 17.1009 26.9 17.8009H34.7ZM15.5 4.90095C12.6 4.90095 10 5.50095 8.2 6.50095C6.3 7.50095 5.5 8.70095 5.5 9.80095C5.5 10.9009 6.3 12.1009 8.2 13.1009C10 14.1009 12.6 14.7009 15.5 14.7009C18.4 14.7009 21 14.1009 22.8 13.1009C24.7 12.1009 25.5 10.9009 25.5 9.80095C25.5 8.70095 24.7 7.50095 22.8 6.50095C21 5.50095 18.4 4.90095 15.5 4.90095ZM8.2 24.9009C10 25.9009 12.6 26.5009 15.5 26.5009C15.7639 26.5009 16.0279 26.4731 16.2771 26.4468C16.5 26.4232 16.7111 26.4009 16.9 26.4009V22.5009C16.4 22.6009 16 22.6009 15.5 22.6009C12.4 22.6009 9.5 22.0009 7.3 20.8009C6.64606 20.5207 6.0794 20.0659 5.6 19.6811C5.56624 19.654 5.5329 19.6273 5.5 19.6009V21.6009C5.5 22.7009 6.3 23.9009 8.2 24.9009ZM16.9 19.6009C16.9 19.1009 17.1 18.6009 17.4 18.3009C17.8 18.0009 18.2 17.8009 18.7 17.8009H24.4C25.2 17.1009 25.5 16.4009 25.5 15.7009V13.7009C24.9 14.2009 24.3 14.6009 23.7 14.9009C21.6 16.0009 18.6 16.7009 15.5 16.7009C12.4 16.7009 9.5 16.1009 7.3 14.9009C6.64606 14.6207 6.0794 14.1659 5.6 13.7811C5.56624 13.754 5.5329 13.7273 5.5 13.7009V15.7009C5.5 16.8009 6.3 18.0009 8.2 19.0009C10 20.0009 12.6 20.6009 15.5 20.6009C15.75 20.6009 15.975 20.5759 16.2 20.5509C16.425 20.5259 16.65 20.5009 16.9 20.5009V19.6009ZM31.1 33.3009C32.9 31.7009 34.5 29.2009 34.5 25.4009V19.9009H18.9V25.4009C18.9 29.2009 20.5 31.7009 22.3 33.3009C24.1 34.9009 26 35.7009 26.7 35.9009C26.7662 35.8726 26.8431 35.8406 26.9297 35.8047C27.7585 35.4605 29.4702 34.7496 31.1 33.3009Z" fill="#161616"/>
</svg>

<svg width="40" height="40" viewBox="0 0 40 40" fill="none" xmlns="http://www.w3.org/2000/svg"><path d="M25.9 30.501c-.4.4-1 .4-1.4 0l-2.9-2.7c-.4-.4-.4-1 0-1.4.4-.4 1-.4 1.4 0l2.2 2.1 5.2-4.9c.4-.4 1-.4 1.4 0 .4.4.4 1 0 1.4l-5.9 5.5Z" fill="#161616"/><path fill-rule="evenodd" clip-rule="evenodd" d="M34.7 17.8c.5 0 1 .2 1.3.5.3.4.5.8.5 1.1v5.8c0 4.5-2 7.5-4.1 9.4-2.002 1.812-4.186 2.624-5.078 2.956-.044.016-.085.03-.122.045-.3.1-.7.1-1.1 0-.8-.2-3.1-1.1-5.2-3-1.6-1.4-3.1-3.5-3.7-6.3-.5.1-1.1.1-1.7.1-3.1 0-6-.6-8.2-1.8-2.2-1.1-3.8-2.8-3.8-5V9.8c0-2.2 1.6-3.9 3.8-5 2.1-1.2 5.1-1.8 8.2-1.8 3.1 0 6 .6 8.2 1.8 2.2 1.1 3.8 2.8 3.8 5v5.9c0 .7-.2 1.4-.6 2.1h7.8ZM15.5 4.9c-2.9 0-5.5.6-7.3 1.6-1.9 1-2.7 2.201-2.7 3.301s.8 2.3 2.7 3.3c1.8 1 4.4 1.6 7.3 1.6 2.9 0 5.5-.6 7.3-1.6 1.9-1 2.7-2.2 2.7-3.3 0-1.1-.8-2.3-2.7-3.3-1.8-1-4.4-1.6-7.3-1.6Zm-7.3 20c1.8 1 4.4 1.6 7.3 1.6.264 0 .528-.027.777-.053.223-.024.434-.046.623-.046v-3.9c-.5.1-.9.1-1.4.1-3.1 0-6-.6-8.2-1.8-.654-.28-1.22-.735-1.7-1.12l-.1-.08v2c0 1.1.8 2.3 2.7 3.3Zm8.7-5.3c0-.5.2-1 .5-1.3.4-.3.8-.5 1.3-.5h5.7c.8-.7 1.1-1.4 1.1-2.1v-2c-.6.5-1.2.9-1.8 1.2-2.1 1.1-5.1 1.8-8.2 1.8-3.1 0-6-.6-8.2-1.8-.654-.28-1.22-.734-1.7-1.119l-.1-.08v2c0 1.1.8 2.3 2.7 3.3 1.8 1 4.4 1.6 7.3 1.6.25 0 .475-.025.7-.05.225-.025.45-.05.7-.05v-.9Zm14.2 13.7c1.8-1.6 3.4-4.1 3.4-7.9v-5.5H18.9v5.5c0 3.8 1.6 6.3 3.4 7.9 1.8 1.6 3.7 2.4 4.4 2.6l.23-.095c.829-.344 2.54-1.055 4.17-2.504Z" fill="#161616"/></svg>
